icon-themes/sifr_svg/cmd/lc_euroconverter.svg

<svg viewBox="0 0 24 24" xmlns="http://www.w3.org/2000/svg"><path d="m15 1c-5.4914241 0-10.111247 3.384824-11.5371094 8h-1.4628906l-1 2h2.0546875c-.0324549.329744-.0546875.662509-.0546875 1s.0222326.670256.0546875 1h-1.0546875l-1 2h2.4628906c1.4258624 4.615176 6.0456853 8 11.5371094 8 2.725605-.0037 5.368635-.857847 7.494141-2.421875-.5562-.41088-1.071266-.866465-1.539063-1.361328-1.720975 1.15414-3.808865 1.779343-5.955078 1.783203-4.352269 0-8.0457799-2.506679-9.4199219-6h9.4199219l1-2h-10.9355469c-.0404374-.328769-.0644531-.661528-.0644531-1s.0240157-.671231.0644531-1h11.9355469l1-2h-12.4199219c1.374142-3.493321 5.0676529-6 9.4199219-6 2.14804.00423 4.237476.6308597 5.958984 1.7871094.470082-.496538.987779-.953445 1.546875-1.3652344-2.128642-1.5663304-4.776234-2.4206144-7.505859-2.421875z" fill="#555753"/></svg>

<svg xmlns="http://www.w3.org/2000/svg" viewBox="0 0 24 24">
  <path
     style="fill:#555753"
     d="M 15 1 C 9.5085759 1 4.888753 4.384824 3.4628906 9 L 2 9 L 1 11 L 3.0546875 11 C 3.0222326 11.329744 3 11.662509 3 12 C 3 12.337491 3.0222326 12.670256 3.0546875 13 L 2 13 L 1 15 L 3.4628906 15 C 4.888753 19.615176 9.5085759 23 15 23 C 17.725605 22.9963 20.368635 22.142153 22.494141 20.578125 C 21.937941 20.167245 21.422875 19.71166 20.955078 19.216797 C 19.234103 20.370937 17.146213 20.99614 15 21 C 10.647731 21 6.9542201 18.493321 5.5800781 15 L 15 15 L 16 13 L 5.0644531 13 C 5.0240157 12.671231 5 12.338472 5 12 C 5 11.661528 5.0240157 11.328769 5.0644531 11 L 17 11 L 18 9 L 5.5800781 9 C 6.9542201 5.506679 10.647731 3 15 3 C 17.14804 3.00423 19.237476 3.6308597 20.958984 4.7871094 C 21.429066 4.2905714 21.946763 3.8336644 22.505859 3.421875 C 20.377217 1.8555446 17.729625 1.0012606 15 1 z "
     />
</svg>
